X:4
T:Pain vritable - D103
C:R. Jef
M:C|
L:1/4
K:F
A2 AA|B2 A2|GFFE|FGA2|B2BB|AcBA|G2GF|G3z|A2AA|B2A2|
GFFE|F3z||F2F2|G2G2|AGAB|c3z|F2F2|G2A2|BAGG|F3z|]
